X: 1
T: Heathery Cruach, The
M: 4/4
L: 1/8
R: reel
K: Dmaj
AG | FGAF GFED | FABc dBAG | FGAF DFAd | BGEG FDAG |
FGAF GFEd | cdec dBAG | FGAF DFAd | BGEG FD D2 |
fd d2 gfeg | fded BdAg | fd d2 gfed | cABc dfag | 
fd d2 gfeg | fded BdAG | FGAF DFAd | BGEG FD D2 |
